public/images/actions/tiny-deposit.svg

<?xml version="1.0" encoding="UTF-8"?>
<svg width="64px" height="64px" viewBox="0 0 64 64" version="1.1" xmlns="http://www.w3.org/2000/svg" xmlns:xlink="http://www.w3.org/1999/xlink">
    <!-- Generator: Sketch 56.3 (81716) - https://sketch.com -->
    <title>atoms / icon / 64px / thick / deposit</title>
    <desc>Created with Sketch.</desc>
    <g id="atoms-/-icon-/-64px-/-thick-/-deposit" stroke="none" stroke-width="1" fill="none" fill-rule="evenodd">
        <g id="atoms-/-spacing-/-boundingBox">
            <rect id="boundingBox" x="0" y="0" width="64" height="64"></rect>
        </g>
        <path d="M34,33.8284271 L36.2426407,31.5857864 C37.0236893,30.8047379 38.2900192,30.8047379 39.0710678,31.5857864 C39.8521164,32.366835 39.8521164,33.633165 39.0710678,34.4142136 L33.4142136,40.0710678 C32.633165,40.8521164 31.366835,40.8521164 30.5857864,40.0710678 L24.9289322,34.4142136 C24.1478836,33.633165 24.1478836,32.366835 24.9289322,31.5857864 C25.7099808,30.8047379 26.9763107,30.8047379 27.7573593,31.5857864 L30,33.8284271 L30,10 C30,8.8954305 30.8954305,8 32,8 C33.1045695,8 34,8.8954305 34,10 L34,33.8284271 Z M52,12 L42.3333333,12 C41.2287638,12 40.3333333,11.1045695 40.3333333,10 C40.3333333,8.8954305 41.2287638,8 42.3333333,8 L52.1666667,8 C54.2837582,8 56,9.71624179 56,11.8333333 L56,52.1666667 C56,54.2837582 54.2837582,56 52.1666667,56 L11.8333333,56 C9.71624179,56 8,54.2837582 8,52.1666667 L8,11.8333333 C8,9.71624179 9.71624179,8 11.8333333,8 L21.6666667,8 C22.7712362,8 23.6666667,8.8954305 23.6666667,10 C23.6666667,11.1045695 22.7712362,12 21.6666667,12 L12,12 L12,52 L52,52 L52,12 Z" id="🎨-icon-colour" fill="#10BA97"></path>
    </g>
</svg>

<svg width="64" height="64" xmlns="http://www.w3.org/2000/svg"><g fill="none" fill-rule="evenodd"><path d="M0 0h64v64H0z"/><path d="M34 33.828l2.243-2.242a2 2 0 012.828 2.828l-5.657 5.657a2 2 0 01-2.828 0l-5.657-5.657a2 2 0 012.828-2.828L30 33.828V10a2 2 0 114 0v23.828zM52 12h-9.667a2 2 0 110-4h9.834A3.833 3.833 0 0156 11.833v40.334A3.833 3.833 0 0152.167 56H11.833A3.833 3.833 0 018 52.167V11.833A3.833 3.833 0 0111.833 8h9.834a2 2 0 110 4H12v40h40V12z" fill="#10BA97"/></g></svg>
